X: 25
T: No_121_Hinata_Dance_Song_(q).krn
N: Derived from No_121_Hinata_Dance_Song_(q).krn
%%abc-version 2.0
%%abcx-abcm2ps-target-version 5.9.1 (29 Sep 2008)
%%abc-creator hum2abc beta
%%abcx-conversion-date 2019/03/15 08:38:45
%%humdrum-veritas 2926578156
%%humdrum-veritas-data 4111900980
%%linebreak <none>
%%barnumbers 0
L: 1/8
M: 2/4
K: F clef=bass
[K:clef=bass][M:2/4]z7/C/ ]|:  
(3CA,A, (3(B,A,)A, ||  
[M:5/8](3F,F,E, (3F,F,-F, (B,/A,/) ||  
[M:3/4](!fermata!C3/B,/) (3A,F,-F, (3F,C,F, | 
F,3/C,/ (3C,(D,C,) (3C,(D,C,) | 
C,3/C,/C,2C, z ||  
[M:2/4]F, z (F,B,) | 
(3A,F,F, (3(F,E,)F, ||  
[M:3/4]F,3/C,/ (3C,(D,C,) (3C,(D,C,) ||  
[M:2/4]C,2C, z/ C/ :|]  



